X:SSF 14-19b 10
T:Willy Taylor's High Tea
C:Michelle Soinne
M:4/4
K:G
P:A
GA|B2dc BAGA B2d2 e4 |1,3 d2g2 B4 cBAG A2 :|2,4 d2g2 B2cB A2F2 G2 :|
P:B
gf|e2dc BAGA B2d2 e4 |1,3 d2g2 B4 cBAG A2 :|2 d2g2 B2cB A2F2 G2 :|
P:coda
[P:(A2)]

% Into...

